symbolic/24x24/places/folder-indigo-linux.svg

<svg xmlns="http://www.w3.org/2000/svg" width="24" height="24" version="1"><rect style="opacity:.2" width="20" height="12" x="2" y="9.5" rx="1" ry="1"/><path style="fill:#3f51b5" d="M2 17c0 .554.446 1 1 1h18c.554 0 1-.446 1-1V6c0-.554-.446-1-1-1h-9c-1.5 0-2-2-3.5-2H3c-.554 0-1 .446-1 1"/><rect style="opacity:.2" width="20" height="12" x="2" y="8.5" rx="1" ry="1"/><rect style="fill:#e4e4e4" width="16" height="8" x="4" y="7" rx="1" ry="1"/><rect style="fill:#5c6bc0" width="20" height="12" x="2" y="9" rx="1" ry="1"/><path style="opacity:.1;fill:#fff" d="M3 3c-.554 0-1 .446-1 1v.5c0-.554.446-1 1-1h5.5c1.5 0 2 2 3.5 2h9c.554 0 1 .446 1 1V6c0-.554-.446-1-1-1h-9c-1.5 0-2-2-3.5-2z"/><path style="fill:#202543" d="M12.88 16.037c-.56.26-1.081.258-1.431.232-.417-.03-.753-.144-.9-.244a.199.199 0 0 0-.223.329c.237.161.656.28 1.095.312.074.005.155.009.243.009.381 0 .866-.037 1.384-.278a.199.199 0 0 0-.168-.36zm2.21-.295c.019-1.727.196-4.991-3.11-4.727-3.264.263-2.399 3.711-2.448 4.866-.043.611-.245 1.358-.532 2.118h.882c.091-.322.158-.641.187-.944.053.037.11.073.17.107.099.058.184.136.274.218.21.191.448.408.914.435l.093.003c.471 0 .793-.206 1.052-.372.124-.079.231-.147.332-.18.287-.09.537-.235.724-.419.029-.029.056-.058.082-.089.104.382.247.812.405 1.241h1.884c-.452-.699-.919-1.383-.909-2.257zm-5.242-.939v-.001c-.032-.563.238-1.037.603-1.059.365-.021.687.419.719.983h.001l.002.09a1.35 1.35 0 0 0-.313.121l-.002-.013c-.031-.32-.202-.562-.381-.54-.18.022-.3.299-.269.619.014.14.054.265.11.359l-.099.073-.125.092a1.337 1.337 0 0 1-.246-.724zm3.699 1.393c-.013.298-.403.578-.762.69l-.003.001a1.887 1.887 0 0 0-.424.225c-.237.151-.483.309-.837.309a.825.825 0 0 1-.071-.003c-.325-.019-.477-.157-.669-.332-.102-.093-.206-.188-.342-.268l-.002-.001c-.292-.165-.474-.37-.485-.548-.006-.089.034-.166.117-.229.182-.136.304-.225.385-.284.09-.066.117-.086.137-.105l.046-.045c.167-.162.447-.434.876-.434.263 0 .553.101.862.3.146.095.273.139.434.194.11.038.235.081.403.153l.003.001c.156.065.341.182.332.376zm-.086-.7a5.2 5.2 0 0 0-.467-.186.906.906 0 0 0 .093-.392c.008-.358-.172-.648-.403-.649-.23-.001-.423.289-.431.647v.035a2.086 2.086 0 0 0-.418-.142.536.536 0 0 1-.002-.04c-.013-.653.387-1.192.894-1.206.507-.014.928.504.942 1.156.005.295-.073.567-.208.777z"/></svg>

<svg xmlns="http://www.w3.org/2000/svg" width="24" height="24" version="1">
 <rect style="opacity:0.2" width="20" height="12" x="2" y="9.5" rx="1" ry="1"/>
 <path style="fill:#3f51b5" d="M 2,17 C 2,17.554 2.446,18 3,18 H 21 C 21.554,18 22,17.554 22,17 V 6 C 22,5.446 21.554,5 21,5 H 12 C 10.5,5 10,3 8.5,3 H 3 C 2.446,3 2,3.446 2,4"/>
 <rect style="opacity:0.2" width="20" height="12" x="2" y="8.5" rx="1" ry="1"/>
 <rect style="fill:#e4e4e4" width="16" height="8" x="4" y="7" rx="1" ry="1"/>
 <rect style="fill:#5c6bc0" width="20" height="12" x="2" y="9" rx="1" ry="1"/>
 <path style="opacity:0.1;fill:#ffffff" d="M 3,3 C 2.446,3 2,3.446 2,4 V 4.5 C 2,3.946 2.446,3.5 3,3.5 H 8.5 C 10,3.5 10.5,5.5 12,5.5 H 21 C 21.554,5.5 22,5.946 22,6.5 V 6 C 22,5.446 21.554,5 21,5 H 12 C 10.5,5 10,3 8.5,3 Z"/>
 <path style="fill:#202543" d="M 12.88,16.037 C 12.32,16.297 11.799,16.295 11.449,16.269 11.032,16.239 10.696,16.125 10.549,16.025 10.458,15.964 10.334,15.987 10.273,16.078 10.211,16.169 10.235,16.293 10.326,16.354 10.563,16.515 10.982,16.634 11.421,16.666 11.495,16.671 11.576,16.675 11.664,16.675 12.045,16.675 12.53,16.638 13.048,16.397 13.147,16.351 13.19,16.233 13.144,16.133 13.098,16.034 12.979,15.991 12.88,16.037 Z M 15.09,15.742 C 15.109,14.015 15.286,10.751 11.98,11.015 8.7155,11.278 9.5811,14.726 9.5324,15.881 9.4893,16.492 9.2865,17.239 9,17.999 H 9.8824 C 9.9731,17.677 10.04,17.358 10.069,17.055 10.122,17.092 10.179,17.128 10.239,17.162 10.338,17.22 10.423,17.298 10.513,17.38 10.723,17.571 10.961,17.788 11.427,17.815 11.458,17.817 11.49,17.818 11.52,17.818 11.991,17.818 12.313,17.612 12.572,17.446 12.696,17.367 12.803,17.299 12.904,17.266 13.191,17.176 13.441,17.031 13.628,16.847 13.657,16.818 13.684,16.789 13.71,16.758 13.814,17.14 13.957,17.57 14.115,17.999 H 15.999 C 15.547,17.3 15.08,16.616 15.09,15.742 Z M 9.8484,14.803 C 9.8484,14.803 9.8484,14.803 9.8483,14.802 9.8159,14.239 10.086,13.765 10.451,13.743 10.816,13.722 11.138,14.162 11.17,14.726 11.17,14.726 11.171,14.726 11.171,14.726 11.172,14.756 11.173,14.786 11.173,14.816 11.057,14.845 10.953,14.887 10.86,14.937 10.859,14.932 10.859,14.928 10.858,14.924 V 14.924 C 10.827,14.604 10.656,14.362 10.477,14.384 10.297,14.406 10.177,14.683 10.208,15.003 10.208,15.003 10.208,15.003 10.208,15.003 10.222,15.143 10.262,15.268 10.318,15.362 10.304,15.373 10.264,15.402 10.219,15.435 10.185,15.46 10.144,15.49 10.094,15.527 9.9581,15.348 9.865,15.092 9.8483,14.803 Z M 13.547,16.196 C 13.534,16.494 13.144,16.774 12.785,16.886 L 12.782,16.887 C 12.633,16.936 12.499,17.021 12.358,17.112 12.121,17.263 11.875,17.421 11.521,17.421 11.497,17.421 11.473,17.42 11.45,17.418 11.125,17.399 10.973,17.261 10.781,17.086 10.679,16.993 10.575,16.898 10.439,16.818 L 10.437,16.817 C 10.145,16.652 9.9634,16.447 9.9518,16.269 9.9461,16.18 9.9856,16.103 10.069,16.04 10.251,15.904 10.373,15.815 10.454,15.756 10.544,15.69 10.571,15.67 10.591,15.651 10.605,15.638 10.62,15.623 10.637,15.606 10.804,15.444 11.084,15.172 11.513,15.172 11.776,15.172 12.066,15.273 12.375,15.472 12.521,15.567 12.648,15.611 12.809,15.666 12.919,15.704 13.044,15.747 13.212,15.819 L 13.215,15.82 C 13.371,15.885 13.556,16.002 13.547,16.196 Z M 13.461,15.496 C 13.431,15.481 13.4,15.467 13.367,15.453 13.216,15.388 13.095,15.345 12.994,15.31 13.05,15.201 13.084,15.065 13.087,14.918 V 14.918 C 13.095,14.56 12.915,14.27 12.684,14.269 12.454,14.268 12.261,14.558 12.253,14.916 V 14.916 C 12.253,14.928 12.253,14.94 12.253,14.951 12.111,14.886 11.971,14.839 11.835,14.809 11.834,14.796 11.833,14.782 11.833,14.769 V 14.769 C 11.82,14.116 12.22,13.577 12.727,13.563 13.234,13.549 13.655,14.067 13.669,14.719 V 14.719 C 13.674,15.014 13.596,15.286 13.461,15.496 Z"/>
</svg>
